app/images/high-arrow.svg

<svg width="14" height="14" viewBox="0 0 14 14" fill="none" xmlns="http://www.w3.org/2000/svg">
<path d="M4.02191 4.81907C4.02191 5.09528 4.24288 5.28863 4.50529 5.30244L7.76461 5.21958L3.80094 9.18324C3.60759 9.37659 3.60759 9.65281 3.80094 9.84616L4.24288 10.2881C4.42242 10.4676 4.71245 10.4814 4.9058 10.2881L8.86946 6.32443L8.7866 9.55613C8.7866 9.83234 8.99376 10.0395 9.25616 10.0533H9.86383C10.1262 10.0395 10.3334 9.83234 10.3334 9.58375V4.19759C10.3334 3.949 10.1262 3.74184 9.87764 3.74184H4.49148C4.24288 3.74184 4.03572 3.949 4.02191 4.2114V4.81907Z" fill="#219E37"/>
</svg>

<svg width="14" height="14" fill="none" xmlns="http://www.w3.org/2000/svg"><path d="M4.022 4.82c0 .275.22.469.483.482l3.26-.082L3.8 9.183a.451.451 0 0 0 0 .663l.442.442c.18.18.47.193.663 0l3.963-3.964-.082 3.232a.49.49 0 0 0 .47.497h.607a.484.484 0 0 0 .47-.47V4.199a.46.46 0 0 0-.456-.456H4.49a.484.484 0 0 0-.47.47v.607Z" fill="#219E37"/></svg>
